Yaru++/mimetypes/16/text-x-arduino.svg

<svg height="16" viewBox="0 0 4.233125 4.233125" width="16" xmlns="http://www.w3.org/2000/svg" xmlns:xlink="http://www.w3.org/1999/xlink"><linearGradient id="a" gradientUnits="userSpaceOnUse" x1="328" x2="328" y1="237" y2="251"><stop offset="0" stop-color="#fff"/><stop offset=".125" stop-color="#fff" stop-opacity=".098039"/><stop offset=".92500001" stop-color="#fff" stop-opacity=".098039"/><stop offset="1" stop-color="#fff" stop-opacity=".498039"/></linearGradient><clipPath id="b"><path d="m325.09646 237c-2.80769 0-3.10979.28839-3.09603 3.10176v3.89824 3.89824c-.0138 2.81337.28834 3.10176 3.09603 3.10176h5.8075c2.8077 0 3.09604-.28835 3.09604-3.10176v-3.89824-3.89824c0-2.8134-.28835-3.10176-3.09604-3.10176z"/></clipPath><path d="m2.8849672.13228548c.187972 0 .3369145.004074.463514.0253194.1265996.021245.2372429.062777.3193443.1446882.082102.081908.1236232.1921045.1446883.3188284.02106.1267213.024684.2760844.023758.46454852v1.0308929 1.0314115c.0007937.188165-.00273.3374488-.023758.4640299-.02106.1267238-.062584.23692-.1446883.3188284-.082104.081911-.1927421.1234352-.3193443.1446882-.1266022.021245-.275542.025319-.463514.025319h-1.5367831c-.1879719 0-.3366287-.00405-.46299804-.025319-.12636672-.0212716-.23701267-.0627377-.31882839-.1446883-.08180779-.0819507-.12294318-.1922924-.14416966-.3188284-.02121854-.1265334-.02531938-.275685-.02531938-.4640299v-1.0314115-1.0314115c0-.18834496.004101-.33749646.0253194-.46402986.0212185-.126536.0623592-.2368777.14416964-.3188284.0818157-.0819506.19246167-.123422.31882839-.1446882.12636934-.02127144.27502614-.02531936.46299804-.02531936z" fill="#0ca1a6"/><g fill="#fff"><path d="m3.4716871 2.1257824c0-.3735747-.3013553-.678726-.667327-.678726-.034219 0-.06868.00422-.102892.00814-.2858778.0442559-.4767344.2611748-.587233.4256977-.106699-.1647943-.3013553-.3855128-.5872331-.4256955-.034219-.00418-.068688-.00814-.1028919-.00814-.3697715 0-.667327.3051513-.667327.678726 0 .3735748.3013552.6787259.667327.6787259.034219 0 .06868-.00422.1028919-.00814.2858778-.044258.4767345-.2611768.5872331-.4256998.1066989.1685904.2975556.3855128.587233.4256955.034219.00422.068688.00814.102892.00814.3659717 0 .667327-.3010837.667327-.6787258zm-1.9750898.4338414c-.022776.00418-.045886.00418-.072487.00418-.2440704 0-.43845899-.1968312-.43845899-.437641 0-.241085.19818459-.4376448.43845899-.4376448.022813 0 .045879.00422.072487.00422.2706754.040194.4346556.3211752.4919404.4338451-.0572848.1123937-.221265.3936576-.4919404.4338366zm.7436102-.4338414c.0572848-.1123948.2212613-.3936624.4919404-.4338414.022776-.00422.045879-.00422.072487-.00422.2440667 0 .4384552.1968275.4384552.437641 0 .2410813-.1981883.4376411-.4384552.4376411-.022776 0-.045882 0-.072487-.00422-.2706791-.0401892-.4346556-.3211707-.4919404-.4338406z" opacity=".7" stroke-width=".27149"/><path d="m1.0741256 2.0128925v.2263263h.7686235v-.2263263z" stroke-width=".240801"/><path d="m2.4311631 2.0130575v.2316628l.0002201-.00561.2482441.00022c-.0002457.063432-.000099.1519283.0001101.2260403.076555.0002348.1479636.0007329.2264547-.00022l-.0001137-.2263095h.2486842v-.2258276l-.2484458.0002164-.0002274-.2269022-.2258605.0002164-.0002274.2266858z" stroke-width=".236382"/><path d="m2.1166947.26457064v3.70398436h.7683916c.7428341 0 .8190303-.076236.8190303-.8205807v-1.0314115-1.0314115c0-.74434206-.076199-.82058066-.8190303-.82058066z" opacity=".08"/><path d="m.52927284 2.1165628v1.0314115c-.003651.7443342.0761989.8205807.81903036.8205807h1.5367831c.7428341 0 .8190303-.076236.8190303-.8205807v-1.0314115z" opacity=".08"/></g><path d="m1.3483032.13228548c-.187972 0-.3369145.004074-.463514.0253194-.12659954.021245-.23724284.062777-.3193443.14468816-.0821015.081908-.12362312.1921045-.14468821.3188284-.0210598.1267213-.0246844.2760844-.0237584.46454846v1.0308929 1.0314115c-.00079371.188165.002725.3374488.0237584.4640299.0210598.1267238.0625841.23692.14468821.3188284.0821041.081911.19274212.1234352.3193443.1446882.1266022.021245.275542.025319.463514.025319h1.5367831c.1879719 0 .3366287-.00405.4629981-.025319.1263667-.021272.2370126-.062738.3188284-.1446882.081808-.081951.1229431-.1922924.1441696-.3188284.021219-.1265334.025319-.275685.025319-.4640299v-1.0314115-1.0314115c0-.18834496-.0041-.33749646-.025319-.46402986-.0212185-.126536-.0623592-.2368777-.1441696-.3188284-.0818158-.0819506-.1924617-.123422-.3188284-.1446882-.1263694-.02127144-.2750262-.02531936-.4629981-.02531936z" fill="none" opacity=".4" stroke="#000" stroke-width=".26457"/><path clip-path="url(#b)" d="m325.09646 237c-2.80769 0-3.10979.28839-3.09603 3.10176v3.89824 3.89824c-.0138 2.81337.28834 3.10176 3.09603 3.10176h5.8075c2.8077 0 3.09604-.28835 3.09604-3.10176v-3.89824-3.89824c0-2.8134-.28835-3.10176-3.09604-3.10176z" fill="none" opacity=".4" stroke="url(#a)" stroke-width="2" transform="matrix(.26457031 0 0 .26457031 -84.662368 -62.438593)"/></svg>

<?xml version="1.0" encoding="UTF-8" standalone="no"?>
<svg
   xmlns:dc="http://purl.org/dc/elements/1.1/"
   xmlns:cc="http://creativecommons.org/ns#"
   xmlns:rdf="http://www.w3.org/1999/02/22-rdf-syntax-ns#"
   xmlns:svg="http://www.w3.org/2000/svg"
   xmlns="http://www.w3.org/2000/svg"
   xmlns:xlink="http://www.w3.org/1999/xlink"
   xmlns:sodipodi="http://sodipodi.sourceforge.net/DTD/sodipodi-0.dtd"
   xmlns:inkscape="http://www.inkscape.org/namespaces/inkscape"
   height="16"
   viewBox="0 0 4.233125 4.233125"
   width="16"
   version="1.1"
   id="svg41"
   sodipodi:docname="4.svg"
   inkscape:version="0.92.5 (2060ec1f9f, 2020-04-08)">
  <metadata
     id="metadata47">
    <rdf:RDF>
      <cc:Work
         rdf:about="">
        <dc:format>image/svg+xml</dc:format>
        <dc:type
           rdf:resource="http://purl.org/dc/dcmitype/StillImage" />
        <dc:title></dc:title>
      </cc:Work>
    </rdf:RDF>
  </metadata>
  <defs
     id="defs45">
    <clipPath
       clipPathUnits="userSpaceOnUse"
       id="clipPath983">
      <path
         sodipodi:nodetypes="scccssscsss"
         inkscape:connector-curvature="0"
         id="path985"
         d="m 325.09646,237 c -2.80769,0 -3.10979,0.28839 -3.09603,3.10176 V 244 v 3.89824 c -0.0138,2.81337 0.28834,3.10176 3.09603,3.10176 h 5.8075 C 333.71166,251 334,250.71165 334,247.89824 V 244 240.10176 C 334,237.28836 333.71165,237 330.90396,237 Z"
         style="color:#000000;display:inline;overflow:visible;visibility:visible;opacity:1;fill:#46a926;fill-opacity:1;fill-rule:nonzero;stroke:none;stroke-width:2;stroke-miterlimit:4;stroke-dasharray:none;stroke-opacity:1;marker:none;enable-background:accumulate" />
    </clipPath>
    <clipPath
       clipPathUnits="userSpaceOnUse"
       id="clipPath983-3">
      <path
         sodipodi:nodetypes="scccssscsss"
         inkscape:connector-curvature="0"
         id="path985-6"
         d="m 325.09646,237 c -2.80769,0 -3.10979,0.28839 -3.09603,3.10176 V 244 v 3.89824 c -0.0138,2.81337 0.28834,3.10176 3.09603,3.10176 h 5.8075 C 333.71166,251 334,250.71165 334,247.89824 V 244 240.10176 C 334,237.28836 333.71165,237 330.90396,237 Z"
         style="color:#000000;display:inline;overflow:visible;visibility:visible;opacity:1;fill:#46a926;fill-opacity:1;fill-rule:nonzero;stroke:none;stroke-width:2;stroke-miterlimit:4;stroke-dasharray:none;stroke-opacity:1;marker:none;enable-background:accumulate" />
    </clipPath>
    <clipPath
       clipPathUnits="userSpaceOnUse"
       id="clipPath983-7">
      <path
         sodipodi:nodetypes="scccssscsss"
         inkscape:connector-curvature="0"
         id="path985-5"
         d="m 325.09646,237 c -2.80769,0 -3.10979,0.28839 -3.09603,3.10176 V 244 v 3.89824 c -0.0138,2.81337 0.28834,3.10176 3.09603,3.10176 h 5.8075 C 333.71166,251 334,250.71165 334,247.89824 V 244 240.10176 C 334,237.28836 333.71165,237 330.90396,237 Z"
         style="color:#000000;display:inline;overflow:visible;visibility:visible;opacity:1;fill:#46a926;fill-opacity:1;fill-rule:nonzero;stroke:none;stroke-width:2;stroke-miterlimit:4;stroke-dasharray:none;stroke-opacity:1;marker:none;enable-background:accumulate" />
    </clipPath>
    <linearGradient
       inkscape:collect="always"
       xlink:href="#linearGradient927"
       id="linearGradient993"
       x1="328"
       y1="237"
       x2="328"
       y2="251"
       gradientUnits="userSpaceOnUse" />
    <linearGradient
       inkscape:collect="always"
       id="linearGradient927">
      <stop
         style="stop-color:#ffffff;stop-opacity:1;"
         offset="0"
         id="stop923" />
      <stop
         id="stop933"
         offset="0.125"
         style="stop-color:#ffffff;stop-opacity:0.09803922" />
      <stop
         id="stop931"
         offset="0.92500001"
         style="stop-color:#ffffff;stop-opacity:0.09803922" />
      <stop
         style="stop-color:#ffffff;stop-opacity:0.49803922"
         offset="1"
         id="stop925" />
    </linearGradient>
    <clipPath
       clipPathUnits="userSpaceOnUse"
       id="clipPath983-35">
      <path
         sodipodi:nodetypes="scccssscsss"
         inkscape:connector-curvature="0"
         id="path985-62"
         d="m 325.09646,237 c -2.80769,0 -3.10979,0.28839 -3.09603,3.10176 V 244 v 3.89824 c -0.0138,2.81337 0.28834,3.10176 3.09603,3.10176 h 5.8075 C 333.71166,251 334,250.71165 334,247.89824 V 244 240.10176 C 334,237.28836 333.71165,237 330.90396,237 Z"
         style="color:#000000;display:inline;overflow:visible;visibility:visible;opacity:1;fill:#46a926;fill-opacity:1;fill-rule:nonzero;stroke:none;stroke-width:2;stroke-miterlimit:4;stroke-dasharray:none;stroke-opacity:1;marker:none;enable-background:accumulate" />
    </clipPath>
  </defs>
  <sodipodi:namedview
     pagecolor="#ffffff"
     bordercolor="#666666"
     borderopacity="1"
     objecttolerance="10"
     gridtolerance="10"
     guidetolerance="10"
     inkscape:pageopacity="0"
     inkscape:pageshadow="2"
     inkscape:window-width="1452"
     inkscape:window-height="858"
     id="namedview43"
     showgrid="false"
     inkscape:zoom="14.75"
     inkscape:cx="8"
     inkscape:cy="8"
     inkscape:window-x="0"
     inkscape:window-y="27"
     inkscape:window-maximized="0"
     inkscape:current-layer="svg41" />
  <linearGradient
     id="a"
     gradientUnits="userSpaceOnUse"
     x1="328"
     x2="328"
     y1="237"
     y2="251">
    <stop
       offset="0"
       stop-color="#fff"
       id="stop2" />
    <stop
       offset=".125"
       stop-color="#fff"
       stop-opacity=".098039"
       id="stop4" />
    <stop
       offset=".92500001"
       stop-color="#fff"
       stop-opacity=".098039"
       id="stop6" />
    <stop
       offset="1"
       stop-color="#fff"
       stop-opacity=".498039"
       id="stop8" />
  </linearGradient>
  <clipPath
     id="b">
    <path
       d="m325.09646 237c-2.80769 0-3.10979.28839-3.09603 3.10176v3.89824 3.89824c-.0138 2.81337.28834 3.10176 3.09603 3.10176h5.8075c2.8077 0 3.09604-.28835 3.09604-3.10176v-3.89824-3.89824c0-2.8134-.28835-3.10176-3.09604-3.10176z"
       id="path11" />
  </clipPath>
  <linearGradient
     gradientUnits="userSpaceOnUse"
     x1="334.86633"
     x2="334.86633"
     y1="140.23035"
     y2="160.63107"
     id="linearGradient18">
    <stop
       offset="0"
       stop-color="#808080"
       id="stop14" />
    <stop
       offset="1"
       stop-color="#999"
       id="stop16" />
  </linearGradient>
  <linearGradient
     id="c"
     gradientTransform="matrix(0 -.00953618 .00953591 0 -.942984 4.47364)"
     gradientUnits="userSpaceOnUse"
     x1="459.03448"
     x2="35.310345"
     y1="419.23337"
     y2="207.36522">
    <stop
       offset="0"
       stop-color="#f2f2f2"
       id="stop20" />
    <stop
       offset="1"
       stop-color="#f9f9f9"
       id="stop22" />
  </linearGradient>
  <path
     style="color:#000000;display:inline;overflow:visible;visibility:visible;fill:#0ca1a6;fill-opacity:1;fill-rule:nonzero;stroke:none;stroke-width:0.26457033;marker:none;enable-background:accumulate"
     d="m 2.8849672,0.13228548 c 0.187972,0 0.3369145,0.004074 0.463514,0.0253194 0.1265996,0.021245 0.2372429,0.062777 0.3193443,0.1446882 0.082102,0.081908 0.1236232,0.1921045 0.1446883,0.3188284 0.02106,0.1267213 0.024684,0.2760844 0.023758,0.46454852 v 1.0308929 1.0314115 c 7.937e-4,0.188165 -0.00273,0.3374488 -0.023758,0.4640299 -0.02106,0.1267238 -0.062584,0.23692 -0.1446883,0.3188284 -0.082104,0.081911 -0.1927421,0.1234352 -0.3193443,0.1446882 -0.1266022,0.021245 -0.275542,0.025319 -0.463514,0.025319 H 1.3481841 c -0.1879719,0 -0.3366287,-0.00405 -0.46299804,-0.025319 C 0.75881934,4.0542493 0.64817339,4.0127832 0.56635767,3.9308326 0.48454988,3.8488819 0.44341449,3.7385402 0.42218801,3.6120042 0.40096947,3.4854708 0.39686863,3.3363192 0.39686863,3.1479743 V 2.1165628 1.0851513 c 0,-0.18834496 0.004101,-0.33749646 0.0253194,-0.46402986 0.0212185,-0.126536 0.0623592,-0.2368777 0.14416964,-0.3188284 0.0818157,-0.0819506 0.19246167,-0.123422 0.31882839,-0.1446882 C 1.0115554,0.1363334 1.1602122,0.13228548 1.3481841,0.13228548 Z"
     id="path918"
     inkscape:connector-curvature="0" />
  <path
     id="path8-6-2-9-6"
     style="display:inline;opacity:0.7;fill:#ffffff;stroke-width:0.27149007;enable-background:new"
     d="m 3.4716871,2.1257824 c 0,-0.3735747 -0.3013553,-0.678726 -0.667327,-0.678726 v 0 c -0.034219,0 -0.06868,0.00422 -0.102892,0.00814 v 0 C 2.4155903,1.4994523 2.2247337,1.7163712 2.1142351,1.8808941 v 0 C 2.0075361,1.7160998 1.8128798,1.4953813 1.527002,1.4551986 v 0 c -0.034219,-0.00418 -0.068688,-0.00814 -0.1028919,-0.00814 v 0 c -0.3697715,0 -0.667327,0.3051513 -0.667327,0.678726 v 0 c 0,0.3735748 0.3013552,0.6787259 0.667327,0.6787259 v 0 c 0.034219,0 0.06868,-0.00422 0.1028919,-0.00814 v 0 C 1.8128798,2.7521125 2.0037365,2.5351937 2.1142351,2.3706707 v 0 c 0.1066989,0.1685904 0.2975556,0.3855128 0.587233,0.4256955 v 0 c 0.034219,0.00422 0.068688,0.00814 0.102892,0.00814 v 0 c 0.3659717,0 0.667327,-0.3010837 0.667327,-0.6787258 z M 1.4965973,2.5596238 c -0.022776,0.00418 -0.045886,0.00418 -0.072487,0.00418 v 0 c -0.2440704,0 -0.43845899,-0.1968312 -0.43845899,-0.437641 v 0 c 0,-0.241085 0.19818459,-0.4376448 0.43845899,-0.4376448 v 0 c 0.022813,0 0.045879,0.00422 0.072487,0.00422 v 0 c 0.2706754,0.040194 0.4346556,0.3211752 0.4919404,0.4338451 v 0 C 1.9312529,2.2389768 1.7672727,2.5202407 1.4965973,2.5604197 v 0 z M 2.2402075,2.1257824 C 2.2974923,2.0133876 2.4614688,1.73212 2.7321479,1.691941 v 0 c 0.022776,-0.00422 0.045879,-0.00422 0.072487,-0.00422 v 0 c 0.2440667,0 0.4384552,0.1968275 0.4384552,0.437641 v 0 c 0,0.2410813 -0.1981883,0.4376411 -0.4384552,0.4376411 v 0 c -0.022776,0 -0.045882,0 -0.072487,-0.00422 v 0 C 2.4614688,2.5185939 2.2974923,2.2376124 2.2402075,2.1249425 v 0 z"
     inkscape:connector-curvature="0" />
  <path
     id="path10-7-3-2"
     style="display:inline;fill:#ffffff;stroke-width:0.24080117;enable-background:new"
     d="m 1.0741256,2.0128925 v 0 0.2263263 h 0.7686235 v 0 -0.2263263 0 z"
     inkscape:connector-curvature="0" />
  <path
     id="path12-0-6-6"
     style="display:inline;fill:#ffffff;stroke-width:0.2363824;enable-background:new"
     d="m 2.4311631,2.0130575 v 0.2316628 l 2.201e-4,-0.00561 0.2482441,2.2e-4 c -2.457e-4,0.063432 -9.9e-5,0.1519283 1.101e-4,0.2260403 0.076555,2.348e-4 0.1479636,7.329e-4 0.2264547,-2.2e-4 L 2.9060784,2.2388411 H 3.1547626 V 2.0130135 L 2.9063168,2.0132299 2.9060894,1.7863277 2.6802289,1.7865441 2.6800015,2.0132299 Z"
     inkscape:connector-curvature="0"
     sodipodi:nodetypes="cccccccccccccc" />
  <path
     style="color:#000000;display:inline;overflow:visible;visibility:visible;opacity:0.07999998;fill:#ffffff;fill-opacity:1;fill-rule:nonzero;stroke:none;stroke-width:0.26457033;marker:none;enable-background:accumulate"
     d="M 2.1166947,0.26457064 V 3.968555 h 0.7683916 c 0.7428341,0 0.8190303,-0.076236 0.8190303,-0.8205807 V 2.1165628 1.0851513 c 0,-0.74434206 -0.076199,-0.82058066 -0.8190303,-0.82058066 z"
     id="path1009"
     inkscape:connector-curvature="0" />
  <path
     style="color:#000000;display:inline;overflow:visible;visibility:visible;opacity:0.07999998;fill:#ffffff;fill-opacity:1;fill-rule:nonzero;stroke:none;stroke-width:0.26457033;marker:none;enable-background:accumulate"
     d="M 0.52927284,2.1165628 V 3.1479743 C 0.52562184,3.8923085 0.60547174,3.968555 1.3483032,3.968555 h 1.5367831 c 0.7428341,0 0.8190303,-0.076236 0.8190303,-0.8205807 V 2.1165628 Z"
     id="path1016"
     inkscape:connector-curvature="0" />
  <path
     id="path1087"
     d="m 1.3483032,0.13228548 c -0.187972,0 -0.3369145,0.004074 -0.463514,0.0253194 -0.12659954,0.021245 -0.23724284,0.062777 -0.3193443,0.14468816 -0.0821015,0.081908 -0.12362312,0.1921045 -0.14468821,0.3188284 -0.0210598,0.1267213 -0.0246844,0.2760844 -0.0237584,0.46454846 v 1.0308929 1.0314115 c -7.9371e-4,0.188165 0.002725,0.3374488 0.0237584,0.4640299 0.0210598,0.1267238 0.0625841,0.23692 0.14468821,0.3188284 0.0821041,0.081911 0.19274212,0.1234352 0.3193443,0.1446882 0.1266022,0.021245 0.275542,0.025319 0.463514,0.025319 h 1.5367831 c 0.1879719,0 0.3366287,-0.00405 0.4629981,-0.025319 C 3.4744511,4.0542488 3.585097,4.0127828 3.6669128,3.9308326 3.7487208,3.8488816 3.7898559,3.7385402 3.8110824,3.6120042 3.8323014,3.4854708 3.8364014,3.3363192 3.8364014,3.1479743 V 2.1165628 1.0851513 c 0,-0.18834496 -0.0041,-0.33749646 -0.025319,-0.46402986 C 3.7898639,0.49458544 3.7487232,0.38424374 3.6669128,0.30229304 3.585097,0.22034244 3.4744511,0.17887104 3.3480844,0.15760484 3.221715,0.1363334 3.0730582,0.13228548 2.8850863,0.13228548 Z"
     style="color:#000000;display:inline;overflow:visible;visibility:visible;opacity:0.4;fill:none;fill-opacity:1;fill-rule:nonzero;stroke:#000000;stroke-width:0.26457033;stroke-opacity:1;marker:none;enable-background:accumulate"
     inkscape:connector-curvature="0" />
  <path
     transform="matrix(0.26457031,0,0,0.26457031,-84.662368,-62.438593)"
     style="color:#000000;display:inline;overflow:visible;visibility:visible;opacity:0.4;fill:none;fill-opacity:1;fill-rule:nonzero;stroke:url(#linearGradient993);stroke-width:2;stroke-miterlimit:4;stroke-dasharray:none;stroke-opacity:1;marker:none;enable-background:accumulate"
     d="m 325.09646,237 c -2.80769,0 -3.10979,0.28839 -3.09603,3.10176 V 244 v 3.89824 c -0.0138,2.81337 0.28834,3.10176 3.09603,3.10176 h 5.8075 C 333.71166,251 334,250.71165 334,247.89824 V 244 240.10176 C 334,237.28836 333.71165,237 330.90396,237 Z"
     id="path937"
     inkscape:connector-curvature="0"
     sodipodi:nodetypes="scccssscsss"
     clip-path="url(#clipPath983-35)" />
</svg>
